X:122
T:Eamonn a Cnuic
M:3/4
L:1/8
S:From S. Ennis
R:Waltz
K:GMaj
BA|G2E3F|G4GA|B2g2f2|e4e2|d4BA|G4AB|c3B AG|E4BA|
G2E3F|G4GA|B2g2f2|e4e2|d4BA|G4AB|A4G2|G4:|:
(3ABc)|d2B2g2|d4(3GBd)|e2f3e|d4d2|d2B3A|G4AB|c3B AG|E4BA|
G2E3F|G4GA|B2g2f2|e4d2|d4BA|G4AB|A4G2|G4:|
